assets/img/sticky.svg

<svg xmlns="http://www.w3.org/2000/svg" viewBox="0 0 24 24" enable-background="new 0 0 24 24"><style type="text/css">.st0{fill:#FFFFFF;}</style><path class="st0" d="M23.9 4.7v16.5c0 1.5-1.2 2.8-2.8 2.8h-18.3c-1.5 0-2.8-1.2-2.8-2.8v-16.5c0-1.5 1.2-2.8 2.8-2.8h1.7v-.4c0-.8.7-1.5 1.5-1.5s1.5.7 1.5 1.5v.4h9v-.4c0-.8.7-1.5 1.5-1.5s1.5.7 1.5 1.5v.4h1.7c1.5 0 2.7 1.3 2.7 2.8zm-6.5-2.8v1.8c0 .3.3.6.6.6s.6-.3.6-.6v-2.2c0-.3-.3-.5-.6-.5s-.6.3-.6.6v.3zm-12 0v1.8c0 .3.3.6.6.6s.6-.3.6-.6v-2.2c0-.3-.3-.5-.6-.5s-.6.2-.6.5v.4zm-4.4 5.6h22v-2.8c0-1-.8-1.8-1.8-1.8h-1.7v.9c0 .8-.7 1.5-1.5 1.5s-1.5-.7-1.5-1.5v-.9h-9v.9c0 .8-.7 1.5-1.5 1.5s-1.5-.7-1.5-1.5v-.9h-1.7c-1 0-1.8.8-1.8 1.8v2.8zm22 .9h-22v12.8c0 1 .8 1.8 1.8 1.8h18.4c1 0 1.8-.8 1.8-1.8v-12.8zm0 0"/><path class="st0" d="M7.9 14.1h3.8v-3.9h1.3v3.9h3.8v1.1h-3.8v4.1h-1.3v-4.1h-3.8v-1.1z"/></svg>

<?xml version="1.0" encoding="utf-8"?>
<!-- Generator: Adobe Illustrator 19.2.0, SVG Export Plug-In . SVG Version: 6.00 Build 0)  -->
<svg version="1.1" id="Layer_1" xmlns="http://www.w3.org/2000/svg" xmlns:xlink="http://www.w3.org/1999/xlink" x="0px" y="0px"
	 viewBox="0 0 24 24" style="enable-background:new 0 0 24 24;" xml:space="preserve">
<style type="text/css">
	.st0{fill:#FFFFFF;}
</style>
<g>
	<path class="st0" d="M23.9,4.7v3.7h0v12.8c0,1.5-1.2,2.8-2.8,2.8H2.8C1.3,24,0,22.8,0,21.2V4.7c0-1.5,1.2-2.8,2.8-2.8h1.7V1.5
		C4.5,0.7,5.2,0,6,0c0.8,0,1.5,0.7,1.5,1.5v0.4h9V1.5C16.5,0.7,17.2,0,18,0c0.8,0,1.5,0.7,1.5,1.5v0.4h1.7
		C22.7,1.9,23.9,3.2,23.9,4.7L23.9,4.7z M17.4,1.9v1.8c0,0.3,0.3,0.6,0.6,0.6c0.3,0,0.6-0.3,0.6-0.6V1.5C18.6,1.2,18.3,1,18,1
		c-0.3,0-0.6,0.3-0.6,0.6V1.9z M5.4,1.9l0,1.8c0,0.3,0.3,0.6,0.6,0.6c0.3,0,0.6-0.3,0.6-0.6V1.5C6.6,1.2,6.3,1,6,1
		C5.7,1,5.4,1.2,5.4,1.5L5.4,1.9L5.4,1.9z M1,7.5H23V4.7c0-1-0.8-1.8-1.8-1.8h-1.7v0.9c0,0.8-0.7,1.5-1.5,1.5h0
		c-0.8,0-1.5-0.7-1.5-1.5V2.9h-9v0.9c0,0.8-0.7,1.5-1.5,1.5c-0.8,0-1.5-0.7-1.5-1.5V2.9H2.8C1.8,2.9,1,3.7,1,4.7V7.5z M23,8.4H1
		v12.8c0,1,0.8,1.8,1.8,1.8h18.4c1,0,1.8-0.8,1.8-1.8V8.4z M23,8.4"/>
	<g>
		<path class="st0" d="M7.9,14.1l3.8,0v-3.9h1.3v3.9l3.8,0v1.1l-3.8,0v4.1h-1.3v-4.1l-3.8,0V14.1z"/>
	</g>
</g>
</svg>
